abel/img/logo.svg

<svg width="234" height="71" viewBox="0 0 234 71" fill="none" xmlns="http://www.w3.org/2000/svg">
<path d="M59.5104 1.245L0 70.7637L23.1973 71L31.7389 61.1437L50.6655 61.3742L47.0015 70.7637L67.4509 71L88.2037 1.25652L59.5104 1.245ZM53.7226 47.512L43.0399 47.0509L60.7299 24.9693L53.7226 47.512Z" fill="#020202"/>
<path d="M150.462 1.245L130.316 71L171.209 70.5389L176.098 54.325L158.694 54.0886L160.841 46.3419H175.783L180.06 28.0242H166.022L167.551 19.5685L186.466 19.3379L191.962 1.245H150.462Z" fill="#020202"/>
<path d="M198.677 1.245L177.93 70.5389L215.772 71L231.664 52.4459H208.747L223.403 1.245H198.677Z" fill="#020202"/>
<path d="M123.91 1.24499C118.414 1.0202 95.5316 1.48131 95.5316 1.48131L75.0708 70.7637H109.569C109.569 70.7637 121.46 70.5446 127.259 59.0226C133.058 47.5005 132.148 42.117 118.414 35.0677C118.414 35.0677 136.734 33.1829 138.554 18.8653C140.375 4.54772 129.406 1.48708 123.91 1.24499ZM110.485 48.6936C109.873 55.0339 101.938 55.0339 101.938 55.0339L104.989 42.5896C104.989 42.5896 111.092 42.3533 110.485 48.6936ZM116.588 23.0903C114.762 30.1395 108.934 28.9579 108.934 28.9579L111.991 17.2226C111.991 17.2226 118.414 16.0525 116.588 23.0903Z" fill="#020202"/>
<path d="M61.8635 0.0691528L2.35303 69.5821L25.5446 69.8299L34.0862 59.9621L53.0128 60.1984L49.3431 69.5821L69.7982 69.8299L90.551 0.0864439L61.8635 0.0691528ZM56.0642 46.3362L45.3872 45.8693L63.0829 23.7935L56.0642 46.3362Z" fill="#ED1C24"/>
<path d="M152.809 0.0691528L132.658 69.8241L173.556 69.3573L178.446 53.1376L161.042 52.9128L163.177 45.1603H178.142L182.413 26.8426H168.364L169.898 18.3869L188.825 18.1563L194.304 0.0691528H152.809Z" fill="#ED1C24"/>
<path d="M201.03 0.0691528L180.277 69.3573L218.119 69.8241L234 51.2701H211.095L225.745 0.0691528H201.03Z" fill="#ED1C24"/>
<path d="M126.257 0.0691606C120.761 -0.16716 97.873 0.305481 97.873 0.305481L77.4465 69.5821H111.91C111.91 69.5821 123.813 69.3573 129.606 57.841C135.4 46.3246 134.49 40.9354 120.761 33.8919C120.761 33.8919 139.081 32.0013 140.901 17.6837C142.722 3.36612 131.742 0.334301 126.257 0.0691606ZM112.821 47.512C112.214 53.8523 104.279 53.8523 104.279 53.8523L107.336 41.4023C107.336 41.4023 113.439 41.1659 112.821 47.512ZM118.929 21.9144C117.097 28.9579 111.298 27.7821 111.298 27.7821L114.349 16.0468C114.349 16.0468 120.761 14.8709 118.929 21.9144Z" fill="#ED1C24"/>
</svg>

<svg width="234" height="71" fill="none" xmlns="http://www.w3.org/2000/svg"><path d="M59.51 1.245L0 70.764 23.197 71l8.542-9.856 18.927.23-3.664 9.39L67.45 71 88.204 1.257 59.51 1.245zm-5.787 46.267l-10.683-.461 17.69-22.082-7.007 22.543zM150.462 1.245L130.316 71l40.893-.461 4.889-16.214-17.404-.236 2.147-7.747h14.942l4.277-18.318h-14.038l1.529-8.456 18.915-.23 5.496-18.093h-41.5zM198.677 1.245L177.93 70.539l37.842.461 15.892-18.554h-22.917l14.656-51.201h-24.726zM123.91 1.245c-5.496-.225-28.378.236-28.378.236L75.07 70.764h34.498s11.891-.22 17.69-11.741c5.799-11.523 4.889-16.906-8.845-23.955 0 0 18.32-1.885 20.14-16.203 1.821-14.317-9.148-17.378-14.644-17.62zm-13.425 47.449c-.612 6.34-8.547 6.34-8.547 6.34l3.051-12.444s6.103-.237 5.496 6.104zm6.103-25.604c-1.826 7.05-7.654 5.868-7.654 5.868l3.057-11.735s6.423-1.17 4.597 5.867z" fill="#020202"/><path d="M61.864.07L2.352 69.581l23.192.248 8.541-9.868 18.927.236-3.67 9.384 20.455.248L90.551.086 61.863.07zm-5.8 46.266l-10.677-.467 17.696-22.075-7.019 22.542zM152.809.07l-20.151 69.754 40.898-.467 4.89-16.22-17.404-.224 2.135-7.753h14.965l4.271-18.317h-14.049l1.534-8.456 18.927-.23L194.304.068h-41.495zM201.03.07l-20.753 69.287 37.842.467L234 51.27h-22.905l14.65-51.2H201.03zM126.257.07c-5.496-.237-28.384.235-28.384.235L77.446 69.582h34.464s11.903-.225 17.696-11.741c5.794-11.516 4.884-16.906-8.845-23.95 0 0 18.32-1.89 20.14-16.207C142.722 3.366 131.742.334 126.257.069zm-13.436 47.442c-.607 6.34-8.542 6.34-8.542 6.34l3.057-12.45s6.103-.236 5.485 6.11zm6.108-25.598c-1.832 7.044-7.631 5.868-7.631 5.868l3.051-11.735s6.412-1.176 4.58 5.867z" fill="#ED1C24"/></svg>
